X:1
T:Every Bridge Is Burned Behind Me
T:George Crawford Hugg
T:Every Bridge Is Burned Behind Me
T:Public Domain
T:Public Domain
C:George Crawford Hugg
Z:Public Domain
%%score ( 1 2 ) ( 3 4 )
L:1/8
M:4/4
K:F
V:1 treble 
V:2 treble 
V:3 bass 
V:4 bass 
V:1
 [CA]3 [CB] [Cc]2 [_EF]2 | [DF]3 [DG] [DF]2 [B,D]2 | [A,C]2 [A,F]2 [A,F]2 [A,F]2 | %3
w: 1.~Since I start- ed|out to find Thee,|Since I to the|
w: 2.~Thou didst hear my|plea so kind- ly;|Thou didst grant me|
w: 3.~Cares of life per-|plex and grind me,|Yet I keep the|
w: 4.~All in All I|ev- er find Thee,|Sav- ior, Lov- er,|
 [DA]3 [=B,G] [CG]4 | [CA]3 [CB] [Cc]2 [_EF]2 | [DF]3 [^CG] [DF]2 [^G,D]2 | %6
w: cross did flee,|Ev- ery bridge is|burned be- hind me;|
w: so much grace,|Ev- ery bridge is|burned be- hind me;|
w: nar- row way.|Ev- ery bridge is|burned be- hind me;|
w: Bro- ther, Friend,|Ev- ery bridge is|burned be- hind me;|
 [A,C]2 [CA]2 [=B,A]2 [B,F]2 | [B,G]3 [A,F] [A,F]4 ||"^Refrain" [Fc]3 (d/c/) [FA]2 [CF]2 | %9
w: I will nev- er|turn from Thee.||
w: I will ne’er my|steps re- trace.||
w: I from Thee will|nev- er stray.||
w: I will serve Thee|to the end.||
 [DF]3 [DG] [DF]2 [B,D]2 | [A,C]2 [A,F]2 [CA]2 [CF]2 | [CG]3 [CA] [CG]4 | %12
w: |||
w: |||
w: |||
w: |||
 [Fc]3 (d/c/) [FA]2 [CF]2 | [DF]3 [DG] [DF]2 [B,D]2 | [A,C]2 [CA]2 [=B,A]2 [B,F]2 | %15
w: |||
w: |||
w: |||
w: |||
 [B,G]3 [A,F] [A,F]4 |] %16
w: |
w: |
w: |
w: |
V:2
 x8 | x8 | x8 | x8 | x8 | x8 | x8 | x8 || x3 F x4 | x8 | x8 | x8 | x3 F x4 | x8 | x8 | x8 |] %16
V:3
 F,3 [F,G,] [F,A,]2 [F,,A,]2 | [B,,B,]3 [B,,B,] [B,,B,]2 [B,,F,]2 | %2
w: ~ ~ ~ ~|~ ~ ~ ~|
 [F,,F,]2 [F,,F,]2 [D,F,]2 [C,F,]2 | [=B,,F,]3 [G,,F,] [C,E,]4 | F,3 [F,G,] [F,A,]2 [F,,A,]2 | %5
w: ~ ~ ~ ~|~ ~ ~|~ ~ ~ ~|
 [B,,B,]3 [B,,B,] [B,,B,]2 [=B,,F,]2 | [C,F,]2 [C,F,]2 [D,F,]2 [G,,D,]2 | %7
w: ~ ~ ~ ~|~ ~ ~ ~|
 [C,E,]3 [F,,F,] [F,,F,]4 || [F,A,]3 (B,/A,/) [F,C]2 [F,A,]2 | [B,,B,]3 [B,,B,] [B,,B,]2 [B,,F,]2 | %10
w: ~ Strength- en|all the * ties that|me Clos- er, clos-|
 [F,,F,]2 [F,,C,]2 [F,,F,]2 [A,,F,]2 | [C,E,]3 [C,F,] [C,E,]4 | [F,A,]3 (B,/A,/) [F,C]2 [F,A,]2 | %13
w: er, Lord to Thee,|Ev- ery bridge|is burned * be- hind|
 [B,,B,]3 [B,,B,] [B,,B,]2 [B,,F,]2 | [C,F,]2 [C,F,]2 [D,F,]2 [G,,D,]2 | %15
w: Thine I ev- er-|more will be. *|
 [C,E,]3 [F,,C,F,] [F,,C,F,]4 |] %16
w: |
V:4
 F,3 x5 | x8 | x8 | x8 | F,3 x5 | x8 | x8 | x8 || x3 F, x4 | x8 | x8 | x8 | x3 F, x4 | x8 | x8 | %15
w: ~||||~||||bind||||me;|||
 x8 |] %16
w: |

